static/img/kroki/6a0eb49057aa2317720dec30883a6e5e.svg

<?xml version="1.0" encoding="us-ascii" standalone="no"?><svg xmlns="http://www.w3.org/2000/svg" xmlns:xlink="http://www.w3.org/1999/xlink" contentStyleType="text/css" height="645px" preserveAspectRatio="none" style="width:655px;height:645px;" version="1.1" viewBox="0 0 655 645" width="655px" zoomAndPan="magnify"><defs/><g><!--class aws_waf_web_acl--><g id="elem_aws_waf_web_acl"><rect codeLine="23" fill="#3D176E" height="39.7891" id="aws_waf_web_acl" rx="2.5" ry="2.5" style="stroke:#000D19;stroke-width:0.5;" width="191" x="7" y="599.55"/><ellipse cx="22" cy="619.4445" fill="#ADD1B2" rx="11" ry="11" style="stroke:#181818;stroke-width:1.0;"/><path d="M24.9688,625.0852 Q24.3906,625.382 23.75,625.5227 Q23.1094,625.6789 22.4063,625.6789 Q19.9063,625.6789 18.5781,624.0383 Q17.2656,622.382 17.2656,619.257 Q17.2656,616.132 18.5781,614.4758 Q19.9063,612.8195 22.4063,612.8195 Q23.1094,612.8195 23.75,612.9758 Q24.4063,613.132 24.9688,613.4289 L24.9688,616.1477 Q24.3438,615.5695 23.75,615.3039 Q23.1563,615.0227 22.5313,615.0227 Q21.1875,615.0227 20.5,616.1008 Q19.8125,617.1633 19.8125,619.257 Q19.8125,621.3508 20.5,622.4289 Q21.1875,623.4914 22.5313,623.4914 Q23.1563,623.4914 23.75,623.2258 Q24.3438,622.9445 24.9688,622.3664 L24.9688,625.0852 Z " fill="#000000"/><text fill="#D9B8FF" font-family="Helvetica" font-size="17" lengthAdjust="spacing" textLength="149" x="41" y="625.3298">aws_waf_web_acl</text></g><!--class azure_network_firewall--><g id="elem_azure_network_firewall"><rect codeLine="26" fill="#3D176E" height="39.7891" id="azure_network_firewall" rx="2.5" ry="2.5" style="stroke:#000D19;stroke-width:0.5;" width="239" x="233" y="599.55"/><ellipse cx="248" cy="619.4445" fill="#ADD1B2" rx="11" ry="11" style="stroke:#181818;stroke-width:1.0;"/><path d="M250.9688,625.0852 Q250.3906,625.382 249.75,625.5227 Q249.1094,625.6789 248.4063,625.6789 Q245.9063,625.6789 244.5781,624.0383 Q243.2656,622.382 243.2656,619.257 Q243.2656,616.132 244.5781,614.4758 Q245.9063,612.8195 248.4063,612.8195 Q249.1094,612.8195 249.75,612.9758 Q250.4063,613.132 250.9688,613.4289 L250.9688,616.1477 Q250.3438,615.5695 249.75,615.3039 Q249.1563,615.0227 248.5313,615.0227 Q247.1875,615.0227 246.5,616.1008 Q245.8125,617.1633 245.8125,619.257 Q245.8125,621.3508 246.5,622.4289 Q247.1875,623.4914 248.5313,623.4914 Q249.1563,623.4914 249.75,623.2258 Q250.3438,622.9445 250.9688,622.3664 L250.9688,625.0852 Z " fill="#000000"/><text fill="#D9B8FF" font-family="Helvetica" font-size="17" lengthAdjust="spacing" textLength="197" x="267" y="625.3298">azure_network_firewall</text></g><!--class firewall--><g id="elem_firewall"><rect codeLine="29" fill="#3D176E" height="39.7891" id="firewall" rx="2.5" ry="2.5" style="stroke:#000D19;stroke-width:0.5;" width="105" x="300" y="438.76"/><ellipse cx="315" cy="458.6545" fill="#ADD1B2" rx="11" ry="11" style="stroke:#181818;stroke-width:1.0;"/><path d="M317.9688,464.2952 Q317.3906,464.592 316.75,464.7327 Q316.1094,464.8889 315.4063,464.8889 Q312.9063,464.8889 311.5781,463.2483 Q310.2656,461.592 310.2656,458.467 Q310.2656,455.342 311.5781,453.6858 Q312.9063,452.0295 315.4063,452.0295 Q316.1094,452.0295 316.75,452.1858 Q317.4063,452.342 317.9688,452.6389 L317.9688,455.3577 Q317.3438,454.7795 316.75,454.5139 Q316.1563,454.2327 315.5313,454.2327 Q314.1875,454.2327 313.5,455.3108 Q312.8125,456.3733 312.8125,458.467 Q312.8125,460.5608 313.5,461.6389 Q314.1875,462.7014 315.5313,462.7014 Q316.1563,462.7014 316.75,462.4358 Q317.3438,462.1545 317.9688,461.5764 L317.9688,464.2952 Z " fill="#000000"/><text fill="#D9B8FF" font-family="Helvetica" font-size="17" lengthAdjust="spacing" textLength="63" x="334" y="464.5398">firewall</text></g><!--class gcp_firewall--><g id="elem_gcp_firewall"><rect codeLine="32" fill="#3D176E" height="39.7891" id="gcp_firewall" rx="2.5" ry="2.5" style="stroke:#000D19;stroke-width:0.5;" width="142" x="506.5" y="599.55"/><ellipse cx="521.5" cy="619.4445" fill="#ADD1B2" rx="11" ry="11" style="stroke:#181818;stroke-width:1.0;"/><path d="M524.4688,625.0852 Q523.8906,625.382 523.25,625.5227 Q522.6094,625.6789 521.9063,625.6789 Q519.4063,625.6789 518.0781,624.0383 Q516.7656,622.382 516.7656,619.257 Q516.7656,616.132 518.0781,614.4758 Q519.4063,612.8195 521.9063,612.8195 Q522.6094,612.8195 523.25,612.9758 Q523.9063,613.132 524.4688,613.4289 L524.4688,616.1477 Q523.8438,615.5695 523.25,615.3039 Q522.6563,615.0227 522.0313,615.0227 Q520.6875,615.0227 520,616.1008 Q519.3125,617.1633 519.3125,619.257 Q519.3125,621.3508 520,622.4289 Q520.6875,623.4914 522.0313,623.4914 Q522.6563,623.4914 523.25,623.2258 Q523.8438,622.9445 524.4688,622.3664 L524.4688,625.0852 Z " fill="#000000"/><text fill="#D9B8FF" font-family="Helvetica" font-size="17" lengthAdjust="spacing" textLength="100" x="540.5" y="625.3298">gcp_firewall</text></g><!--class resource--><g id="elem_resource"><rect codeLine="35" fill="#3D176E" height="310.7578" id="resource" rx="2.5" ry="2.5" style="stroke:#000D19;stroke-width:0.5;" width="227" x="239" y="7"/><ellipse cx="307.75" cy="26.8945" fill="#ADD1B2" rx="11" ry="11" style="stroke:#181818;stroke-width:1.0;"/><path d="M310.7188,32.5352 Q310.1406,32.832 309.5,32.9727 Q308.8594,33.1289 308.1563,33.1289 Q305.6563,33.1289 304.3281,31.4883 Q303.0156,29.832 303.0156,26.707 Q303.0156,23.582 304.3281,21.9258 Q305.6563,20.2695 308.1563,20.2695 Q308.8594,20.2695 309.5,20.4258 Q310.1563,20.582 310.7188,20.8789 L310.7188,23.5977 Q310.0938,23.0195 309.5,22.7539 Q308.9063,22.4727 308.2813,22.4727 Q306.9375,22.4727 306.25,23.5508 Q305.5625,24.6133 305.5625,26.707 Q305.5625,28.8008 306.25,29.8789 Q306.9375,30.9414 308.2813,30.9414 Q308.9063,30.9414 309.5,30.6758 Q310.0938,30.3945 310.7188,29.8164 L310.7188,32.5352 Z " fill="#000000"/><text fill="#D9B8FF" font-family="Helvetica" font-size="17" lengthAdjust="spacing" textLength="71" x="333.25" y="32.7798">resource</text><line style="stroke:#000D19;stroke-width:0.5;" x1="240" x2="465" y1="46.7891" y2="46.7891"/><text fill="#D9B8FF" font-family="sans-serif" font-size="14" font-weight="bold" lengthAdjust="spacing" textLength="29" x="250" y="68.7842">age</text><text fill="#D9B8FF" font-family="sans-serif" font-size="14" lengthAdjust="spacing" textLength="66" x="279" y="68.7842">: duration</text><text fill="#D9B8FF" font-family="sans-serif" font-size="14" font-weight="bold" lengthAdjust="spacing" textLength="43" x="250" y="95.0811">atime</text><text fill="#D9B8FF" font-family="sans-serif" font-size="14" lengthAdjust="spacing" textLength="70" x="293" y="95.0811">: datetime</text><text fill="#D9B8FF" font-family="sans-serif" font-size="14" font-weight="bold" lengthAdjust="spacing" textLength="43" x="250" y="121.3779">ctime</text><text fill="#D9B8FF" font-family="sans-serif" font-size="14" lengthAdjust="spacing" textLength="70" x="293" y="121.3779">: datetime</text><text fill="#D9B8FF" font-family="sans-serif" font-size="14" font-weight="bold" lengthAdjust="spacing" textLength="14" x="250" y="147.6748">id</text><text fill="#D9B8FF" font-family="sans-serif" font-size="14" lengthAdjust="spacing" textLength="48" x="264" y="147.6748">: string</text><text fill="#D9B8FF" font-family="sans-serif" font-size="14" font-weight="bold" lengthAdjust="spacing" textLength="33" x="250" y="173.9717">kind</text><text fill="#D9B8FF" font-family="sans-serif" font-size="14" lengthAdjust="spacing" textLength="48" x="283" y="173.9717">: string</text><text fill="#D9B8FF" font-family="sans-serif" font-size="14" font-weight="bold" lengthAdjust="spacing" textLength="90" x="250" y="200.2686">last_access</text><text fill="#D9B8FF" font-family="sans-serif" font-size="14" lengthAdjust="spacing" textLength="66" x="340" y="200.2686">: duration</text><text fill="#D9B8FF" font-family="sans-serif" font-size="14" font-weight="bold" lengthAdjust="spacing" textLength="90" x="250" y="226.5654">last_update</text><text fill="#D9B8FF" font-family="sans-serif" font-size="14" lengthAdjust="spacing" textLength="66" x="340" y="226.5654">: duration</text><text fill="#D9B8FF" font-family="sans-serif" font-size="14" font-weight="bold" lengthAdjust="spacing" textLength="48" x="250" y="252.8623">mtime</text><text fill="#D9B8FF" font-family="sans-serif" font-size="14" lengthAdjust="spacing" textLength="70" x="298" y="252.8623">: datetime</text><text fill="#D9B8FF" font-family="sans-serif" font-size="14" font-weight="bold" lengthAdjust="spacing" textLength="43" x="250" y="279.1592">name</text><text fill="#D9B8FF" font-family="sans-serif" font-size="14" lengthAdjust="spacing" textLength="48" x="293" y="279.1592">: string</text><text fill="#D9B8FF" font-family="sans-serif" font-size="14" font-weight="bold" lengthAdjust="spacing" textLength="34" x="250" y="305.4561">tags</text><text fill="#D9B8FF" font-family="sans-serif" font-size="14" lengthAdjust="spacing" textLength="171" x="284" y="305.4561">: dictionary[string, string]</text></g><!--reverse link firewall to aws_waf_web_acl--><g id="link_firewall_aws_waf_web_acl"><path codeLine="47" d="M307.1459,488.4609 C259.0959,518.9809 180.88,568.66 132.76,599.22 " fill="none" id="firewall-backto-aws_waf_web_acl" style="stroke:#FFAF37;stroke-width:2.0;"/><polygon fill="none" points="322.34,478.81,303.9289,483.3962,310.3629,493.5256,322.34,478.81" style="stroke:#FFAF37;stroke-width:2.0;"/></g><!--reverse link firewall to azure_network_firewall--><g id="link_firewall_azure_network_firewall"><path codeLine="48" d="M352.5,496.81 C352.5,527.33 352.5,568.66 352.5,599.22 " fill="none" id="firewall-backto-azure_network_firewall" style="stroke:#FFAF37;stroke-width:2.0;"/><polygon fill="none" points="352.5,478.81,346.5,496.81,358.5,496.81,352.5,478.81" style="stroke:#FFAF37;stroke-width:2.0;"/></g><!--reverse link resource to firewall--><g id="link_resource_firewall"><path codeLine="49" d="M352.5,335.85 C352.5,384.14 352.5,413.37 352.5,438.68 " fill="none" id="resource-backto-firewall" style="stroke:#FFAF37;stroke-width:2.0;"/><polygon fill="none" points="352.5,317.85,346.5,335.85,358.5,335.85,352.5,317.85" style="stroke:#FFAF37;stroke-width:2.0;"/></g><!--reverse link firewall to gcp_firewall--><g id="link_firewall_gcp_firewall"><path codeLine="50" d="M394.3469,489.1882 C437.5969,519.7082 506.96,568.66 550.26,599.22 " fill="none" id="firewall-backto-gcp_firewall" style="stroke:#FFAF37;stroke-width:2.0;"/><polygon fill="none" points="379.64,478.81,390.8875,494.0905,397.8063,484.2859,379.64,478.81" style="stroke:#FFAF37;stroke-width:2.0;"/></g><!--SRC=[XPD1Rzim38Nl_XK2SWiM85cm9HbsoG8KtQKObjsAmc0aoX5YImP5pqZN_lV9TMiuiflUvFS-aNo4TJGA1HObdqM1nG799_vaR0a4XTWIkNhdSaTYeZNevIesRvpb3u4xA53SOluNsKY8YJz78qyMlHUVUzOFaAUCN6LLMvu9h0yMMkvHknoytpAJELIClM7Kvh3MEYRZefEbMgo-uW1pf91UaVbyhXQR6FcmrTNS7R4tZoWM_QNTESR1c8CMBzJLAHkYD-GWw9l_xeo_G2bZC_6bf_rkPoABTA7lZw1StT0QSjzluna97PzBt0rIuMQjz6eK_laUdCXcTG9gdzQWqneFASXS_4kIvpVhiI9CBNBjw9HgGrX3Va6CQPaiHrb2xogI6BJf53ASJhy9LH6mSRPHs1Ij1epDEMXoH3Eg4NpuJsqMFaFYIo7quX14XbSGTNXnghAf5Jd5I1yBhTGLPiZQYaOsru3EzwttwPLv256xuD-VPhDPlDo1FRhWfDjKItLwTBk_wEG_]--></g></svg>

<svg xmlns="http://www.w3.org/2000/svg" width="655" height="645" viewBox="0 0 655 645"><rect width="191" height="39.789" x="7" y="599.55" fill="#3D176E" rx="2.5" ry="2.5" style="stroke:#000d19;stroke-width:.5"/><circle cx="22" cy="619.444" r="11" fill="#ADD1B2" style="stroke:#181818;stroke-width:1"/><path d="M24.969 625.085q-.578.297-1.219.438-.64.156-1.344.156-2.5 0-3.828-1.64-1.312-1.657-1.312-4.782t1.312-4.781q1.328-1.657 3.828-1.657.703 0 1.344.157.656.156 1.219.453v2.719q-.625-.579-1.219-.844-.594-.281-1.219-.281-1.343 0-2.031 1.078-.687 1.062-.687 3.156t.687 3.172q.688 1.062 2.031 1.062.625 0 1.219-.265.594-.282 1.219-.86z"/><text x="41" y="625.33" fill="#D9B8FF" font-family="Helvetica" font-size="17" textLength="149">aws_waf_web_acl</text><rect width="239" height="39.789" x="233" y="599.55" fill="#3D176E" rx="2.5" ry="2.5" style="stroke:#000d19;stroke-width:.5"/><circle cx="248" cy="619.444" r="11" fill="#ADD1B2" style="stroke:#181818;stroke-width:1"/><path d="M250.969 625.085q-.578.297-1.219.438-.64.156-1.344.156-2.5 0-3.828-1.64-1.312-1.657-1.312-4.782t1.312-4.781q1.328-1.657 3.828-1.657.703 0 1.344.157.656.156 1.219.453v2.719q-.625-.579-1.219-.844-.594-.281-1.219-.281-1.344 0-2.031 1.078-.687 1.062-.687 3.156t.687 3.172q.688 1.062 2.031 1.062.625 0 1.219-.265.594-.282 1.219-.86z"/><text x="267" y="625.33" fill="#D9B8FF" font-family="Helvetica" font-size="17" textLength="197">azure_network_firewall</text><rect width="105" height="39.789" x="300" y="438.76" fill="#3D176E" rx="2.5" ry="2.5" style="stroke:#000d19;stroke-width:.5"/><circle cx="315" cy="458.654" r="11" fill="#ADD1B2" style="stroke:#181818;stroke-width:1"/><path d="M317.969 464.295q-.578.297-1.219.438-.64.156-1.344.156-2.5 0-3.828-1.64-1.312-1.657-1.312-4.782t1.312-4.781q1.328-1.656 3.828-1.656.703 0 1.344.156.656.156 1.219.453v2.719q-.625-.579-1.219-.844-.594-.281-1.219-.281-1.344 0-2.031 1.078-.687 1.062-.687 3.156t.687 3.172q.688 1.062 2.031 1.062.625 0 1.219-.265.594-.281 1.219-.86z"/><text x="334" y="464.54" fill="#D9B8FF" font-family="Helvetica" font-size="17" textLength="63">firewall</text><rect width="142" height="39.789" x="506.5" y="599.55" fill="#3D176E" rx="2.5" ry="2.5" style="stroke:#000d19;stroke-width:.5"/><circle cx="521.5" cy="619.444" r="11" fill="#ADD1B2" style="stroke:#181818;stroke-width:1"/><path d="M524.469 625.085q-.578.297-1.219.438-.64.156-1.344.156-2.5 0-3.828-1.64-1.312-1.657-1.312-4.782t1.312-4.781q1.328-1.657 3.828-1.657.703 0 1.344.157.656.156 1.219.453v2.719q-.625-.579-1.219-.844-.594-.281-1.219-.281-1.343 0-2.031 1.078-.687 1.062-.687 3.156t.687 3.172q.688 1.062 2.031 1.062.625 0 1.219-.265.594-.282 1.219-.86z"/><text x="540.5" y="625.33" fill="#D9B8FF" font-family="Helvetica" font-size="17" textLength="100">gcp_firewall</text><rect width="227" height="310.758" x="239" y="7" fill="#3D176E" rx="2.5" ry="2.5" style="stroke:#000d19;stroke-width:.5"/><circle cx="307.75" cy="26.895" r="11" fill="#ADD1B2" style="stroke:#181818;stroke-width:1"/><path d="M310.719 32.535q-.578.297-1.219.438-.64.156-1.344.156-2.5 0-3.828-1.64-1.312-1.657-1.312-4.782t1.312-4.781q1.328-1.656 3.828-1.656.703 0 1.344.156.656.156 1.219.453v2.719q-.625-.578-1.219-.844-.594-.281-1.219-.281-1.344 0-2.031 1.078-.687 1.062-.687 3.156t.687 3.172q.688 1.062 2.031 1.062.625 0 1.219-.265.594-.281 1.219-.86z"/><text x="333.25" y="32.78" fill="#D9B8FF" font-family="Helvetica" font-size="17" textLength="71">resource</text><path d="M240 46.789h225" style="stroke:#000d19;stroke-width:.5"/><text x="250" y="68.784" fill="#D9B8FF" font-family="sans-serif" font-size="14" font-weight="bold" textLength="29">age</text><text x="279" y="68.784" fill="#D9B8FF" font-family="sans-serif" font-size="14" textLength="66">: duration</text><text x="250" y="95.081" fill="#D9B8FF" font-family="sans-serif" font-size="14" font-weight="bold" textLength="43">atime</text><text x="293" y="95.081" fill="#D9B8FF" font-family="sans-serif" font-size="14" textLength="70">: datetime</text><text x="250" y="121.378" fill="#D9B8FF" font-family="sans-serif" font-size="14" font-weight="bold" textLength="43">ctime</text><text x="293" y="121.378" fill="#D9B8FF" font-family="sans-serif" font-size="14" textLength="70">: datetime</text><text x="250" y="147.675" fill="#D9B8FF" font-family="sans-serif" font-size="14" font-weight="bold" textLength="14">id</text><text x="264" y="147.675" fill="#D9B8FF" font-family="sans-serif" font-size="14" textLength="48">: string</text><text x="250" y="173.972" fill="#D9B8FF" font-family="sans-serif" font-size="14" font-weight="bold" textLength="33">kind</text><text x="283" y="173.972" fill="#D9B8FF" font-family="sans-serif" font-size="14" textLength="48">: string</text><text x="250" y="200.269" fill="#D9B8FF" font-family="sans-serif" font-size="14" font-weight="bold" textLength="90">last_access</text><text x="340" y="200.269" fill="#D9B8FF" font-family="sans-serif" font-size="14" textLength="66">: duration</text><text x="250" y="226.565" fill="#D9B8FF" font-family="sans-serif" font-size="14" font-weight="bold" textLength="90">last_update</text><text x="340" y="226.565" fill="#D9B8FF" font-family="sans-serif" font-size="14" textLength="66">: duration</text><text x="250" y="252.862" fill="#D9B8FF" font-family="sans-serif" font-size="14" font-weight="bold" textLength="48">mtime</text><text x="298" y="252.862" fill="#D9B8FF" font-family="sans-serif" font-size="14" textLength="70">: datetime</text><text x="250" y="279.159" fill="#D9B8FF" font-family="sans-serif" font-size="14" font-weight="bold" textLength="43">name</text><text x="293" y="279.159" fill="#D9B8FF" font-family="sans-serif" font-size="14" textLength="48">: string</text><text x="250" y="305.456" fill="#D9B8FF" font-family="sans-serif" font-size="14" font-weight="bold" textLength="34">tags</text><text x="284" y="305.456" fill="#D9B8FF" font-family="sans-serif" font-size="14" textLength="171">: dictionary[string, string]</text><g fill="none"><path d="M307.146 488.46c-48.05 30.52-126.266 80.2-174.386 110.76" style="stroke:#ffaf37;stroke-width:2"/><path d="m322.34 478.81-18.411 4.586 6.434 10.13z" style="stroke:#ffaf37;stroke-width:2"/></g><path fill="none" d="M352.5 496.81v102.41m0-120.41-6 18h12zm0-142.96v102.83m0-120.83-6 18h12z" style="stroke:#ffaf37;stroke-width:2"/><g fill="none"><path d="M394.347 489.188c43.25 30.52 112.613 79.472 155.913 110.032" style="stroke:#ffaf37;stroke-width:2"/><path d="m379.64 478.81 11.248 15.28 6.918-9.804z" style="stroke:#ffaf37;stroke-width:2"/></g></svg>
